assets/img/main/in.svg

<svg width="18" height="17" viewBox="0 0 18 17" fill="none" xmlns="http://www.w3.org/2000/svg">
<path d="M16.9969 17.0004V16.9997H17.0012V10.7646C17.0012 7.7144 16.3445 5.36475 12.7786 5.36475C11.0643 5.36475 9.91394 6.30546 9.4443 7.19729H9.39471V5.64951H6.01367V16.9997H9.53426V11.3795C9.53426 9.89972 9.81477 8.46881 11.6473 8.46881C13.4529 8.46881 13.4799 10.1576 13.4799 11.4744V17.0004H16.9969Z" fill="white"/>
<path d="M0.279297 5.6499H3.80413V17.0001H0.279297V5.6499Z" fill="white"/>
<path d="M2.04152 0C0.914503 0 0 0.914503 0 2.04152C0 3.16853 0.914503 4.10216 2.04152 4.10216C3.16853 4.10216 4.08303 3.16853 4.08303 2.04152C4.08232 0.914503 3.16782 0 2.04152 0V0Z" fill="white"/>
</svg>

<svg width="18" height="17" fill="none" xmlns="http://www.w3.org/2000/svg"><path d="M16.997 17H17v-6.235c0-3.05-.657-5.4-4.222-5.4-1.715 0-2.865.94-3.335 1.832h-.05V5.65h-3.38V17h3.52v-5.62c0-1.48.28-2.911 2.113-2.911 1.806 0 1.833 1.689 1.833 3.005V17h3.517zM.28 5.65h3.524V17H.28V5.65zM2.042 0A2.042 2.042 0 000 2.042c0 1.127.915 2.06 2.042 2.06 1.127 0 2.041-.933 2.041-2.06A2.043 2.043 0 002.042 0z" fill="#fff"/></svg>
